svg/monitor_small.svg

<svg xmlns="http://www.w3.org/2000/svg" id="mdi-monitor-small" viewBox="0 0 24 24"><path d="M19 2H5C3.89 2 3 2.89 3 4V16C3 17.11 3.9 18 5 18H10V20H8V22H16V20H14V18H19C20.11 18 21 17.11 21 16V4C21 2.89 20.1 2 19 2M19 16H5V4H19V16Z" /></svg>

<svg xmlns="http://www.w3.org/2000/svg" viewBox="0 0 24 24"><path d="M19 2H5c-1.11 0-2 .89-2 2v12a2 2 0 0 0 2 2h5v2H8v2h8v-2h-2v-2h5c1.11 0 2-.89 2-2V4a2 2 0 0 0-2-2m0 14H5V4h14z"/></svg>
